svgs/thin/bars-filter.svg

<svg xmlns="http://www.w3.org/2000/svg" viewBox="0 0 448 512"><!--! Font Awesome Pro 6.4.0 by @fontawesome - https://fontawesome.com License - https://fontawesome.com/license (Commercial License) Copyright 2023 Fonticons, Inc. --><path d="M0 88c0-4.4 3.6-8 8-8H440c4.4 0 8 3.6 8 8s-3.6 8-8 8H8c-4.4 0-8-3.6-8-8zM64 248c0-4.4 3.6-8 8-8H376c4.4 0 8 3.6 8 8s-3.6 8-8 8H72c-4.4 0-8-3.6-8-8zM288 408c0 4.4-3.6 8-8 8H168c-4.4 0-8-3.6-8-8s3.6-8 8-8H280c4.4 0 8 3.6 8 8z"/></svg>

<svg xmlns="http://www.w3.org/2000/svg" viewBox="0 0 448 512"><!--! Font Awesome Pro 6.3.0 by @fontawesome - https://fontawesome.com License - https://fontawesome.com/license (Commercial License) Copyright 2023 Fonticons, Inc. --><path d="M0 88C0 83.58 3.582 80 8 80H440C444.4 80 448 83.58 448 88C448 92.42 444.4 96 440 96H8C3.582 96 0 92.42 0 88zM64 248C64 243.6 67.58 240 72 240H376C380.4 240 384 243.6 384 248C384 252.4 380.4 256 376 256H72C67.58 256 64 252.4 64 248zM280 416H168C163.6 416 160 412.4 160 408C160 403.6 163.6 400 168 400H280C284.4 400 288 403.6 288 408C288 412.4 284.4 416 280 416z"/></svg>
